!!!OTL: O Himmel ich verspuer' , dass ich nicht mehr kann leben
!!!ARE: Europa, Mitteleuropa, Deutschland, Oberbayern
!!!SCT: D0215
!!!YEM: Copyright 1995, estate of Helmut Schaffrath.
**kern
*ICvox
*Ivox
*M4/4
*k[f#]
*G:
{8dd
8cc
=1
4.b
8a
4b
4cc
=2
2b
4r}
{4dd
=3
4.gg
8dd
4dd
8cc
8b
=4
4b
4a
4r}
{8dd
8cc
=5
4.b
8a
4b
4cc
=6
2b
4r}
{4dd
=7
4.gg
8dd
4dd
8cc
8b
=8
4b
4a
4r}
{4dd
=9
4ee
4dd
4ee
4ff#
=10
2gg
4r}
{4dd
=11
4ee
8dd
8cc
4b
4a
=12
2g
4r}
==
!!!AGN: Soldaten - Lied
!! zweistimmig notiert ( vorwiegend in Terzparallelen )
!!    Inzipit = Variante zum Lied, Variante zu D0077 ?
!!!ONB: ESAC (Essen Associative Code) Database: DVA
!!!AMT: simple quadruple
!!!AIN: vox
!!!EED: Helmut Schaffrath
!!!EEV: 1.0
*-
